X: 1
T: La Grand Gigue Simple
C: Quebecois reel
S: Tune of the Month, Dec. 2001, Sivler Apple News 8
B: Dance Ce Soir, The fiddle and Accordion Music of Quebec
H: transcription based on a recording of The Bottine Souriante
Z: Paul Stewart Cranford (P.S.C.), <http://www.cranfordpub.com>
Q: 333
L: 1/8
M: 6/4
F: http://cranfordpub.com/tunes/abcs/silver_apple.abc 2007-05-13 02:26:13 UT
K: D
dfed ceAc eAce|dfed cAdB BAFA|dfed ceAc eAce|1defg afdB A2FA:|
[2dfff gfdf e2 ce|defg afdf gece|defg afdB AGED||
|:A,2 DE FDED EGFD|A,2 DE FDDB AGFD:|
|:A,2 DE FDED EGFD|1A,2 DE FDDB AGFD:|2A,2 DE FDDB AGFA:|]
